X: 1
T: Passages
C: David A. Kaynor, May 2021
%D:2021
R: waltz
M: 3/4
L: 1/8
K: F
|: C2 |\
"F"F2 FA cA | F2 FA cA | "Bb"B2 FA Bd | "F"c3 f ga |\
"C7"b2 ge cB | "Gm"G4 GA |1 "Bb"B2 Bc dc | "C"c4 :|2 "C7"Bc BG FE | "F"F4 |]
|: (3(EFE) |\
"Dm"DF AF AF | DF AF AF | DF AF AF | d3 A df |\
"Gm"g2 gd BG | "Dm"A2 AF D2 |1 "G"GA  =BG Bc | "C"c4 :|2 "C7"Bc BG FE | "F"F4 |]
